assets/sonr-icons/chart-down.svg

<svg xmlns="http://www.w3.org/2000/svg" width="24" height="24" fill="none" viewBox="0 0 24 24"><path fill="#000" d="M4.31905 3.35905C4.31905 2.82885 3.88925 2.39905 3.35905 2.39905C2.82886 2.39905 2.39905 2.82885 2.39905 3.35905L2.39905 19.1338C2.39902 19.3761 2.39899 19.6123 2.41539 19.8123C2.43339 20.032 2.47589 20.2916 2.60961 20.5527L2.61017 20.5538C2.79356 20.9107 3.08438 21.2055 3.44906 21.3908C3.70913 21.5232 3.96727 21.5657 4.18707 21.5837C4.38696 21.6001 4.62293 21.6001 4.86526 21.6L20.6401 21.6C21.1702 21.6 21.6001 21.1702 21.6001 20.64C21.6001 20.1099 21.1702 19.68 20.6401 19.68H4.89605C4.61114 19.68 4.45568 19.6793 4.34404 19.6701L4.33014 19.6689L4.32897 19.6555C4.3198 19.5437 4.31905 19.388 4.31905 19.103V3.35905Z"/><path fill="#000" d="M7.89959 7.50366C7.53707 7.11676 6.92956 7.097 6.54266 7.45951C6.15577 7.82203 6.136 8.42954 6.49852 8.81644L10.2601 12.8309L10.2871 12.8604C10.3849 12.9676 10.5894 13.1918 10.862 13.3162C11.093 13.422 11.3427 13.4621 11.5847 13.4417L11.5955 13.4407C11.8892 13.4126 12.1528 13.2721 12.2823 13.2031L12.3185 13.184L15.3165 11.627L18.9795 15.5364C19.342 15.9233 19.9496 15.9431 20.3364 15.5806C20.7233 15.2181 20.7431 14.6106 20.3806 14.2237L16.6186 10.2087L16.6173 10.2072L16.5893 10.177C16.4911 10.0702 16.2893 9.85049 16.0229 9.72659L16.0196 9.72507C15.788 9.6184 15.5373 9.5779 15.2944 9.59838L15.2836 9.59942C14.9899 9.62753 14.7263 9.76795 14.5968 9.83695L14.5606 9.85609L11.5627 11.4131L7.89959 7.50366Z"/></svg>

<svg xmlns="http://www.w3.org/2000/svg" width="24" height="24" fill="none"><path fill="currentColor" d="M4.319 3.359a.96.96 0 1 0-1.92 0v15.775c0 .242 0 .478.016.678.018.22.06.48.195.74v.002c.184.357.474.652.84.837.26.132.517.175.737.193.2.016.436.016.678.016H20.64a.96.96 0 0 0 0-1.92H4.896c-.285 0-.44 0-.552-.01l-.014-.001-.001-.014a8 8 0 0 1-.01-.552z"/><path fill="currentColor" d="M7.9 7.504a.96.96 0 1 0-1.401 1.312l3.761 4.015.027.03c.098.107.302.33.575.455.231.106.48.146.723.126l.01-.001c.294-.028.558-.169.687-.238l.037-.019 2.997-1.557 3.664 3.91a.96.96 0 1 0 1.4-1.313l-3.761-4.015-.002-.002-.028-.03c-.098-.107-.3-.327-.566-.45l-.003-.002a1.44 1.44 0 0 0-.726-.127l-.01.001c-.294.029-.558.169-.687.238l-.036.02-2.998 1.556z"/></svg>
